X:2
T:High Drive
R:reel
C:Gordon Duncan
D:Andrea Beaton, Cuts
Z:Paul Stewart Cranford (P.S.C.), <http://www.cranfordpub.com>
L:1/8
M:C|
Q:333
K:D
A|d2 de fAdA|BBgB BAGB|GA A/A/A fedf|eA A/A/A afge|
ddde fAdA|B/B/B gB BAGB|GA A/A/A fedf|edcA d3:|
|:d|a2 ag ad d/d/d|AB B/B/B gBdB|GA A/A/A fedf|eA A/A/A efge|
[1a2 ag ad d/d/d|AB B/B/B gBdB|GA A/A/A fedf|edce d3:|
[2d/d/d de fedA|B/B/B gB BAGB|GA A/A/A fedf|edcA d3:|
